X:48
T:The what d'ye call it
S:John Moore's Book 1
Z:Transcribed by David Jacobs  April 2021
%%VWML: Moore1-4493-p31-0
F:http://www.vwml.org/record/Moore1/4493/p31
M:9/8
L:1/8
K:G
G3E2A|FDd d2c|BGd BGd|BGd AFD|G3E2A|FDd d2 e/f/|gfe dcB|ADF G3:|
|:g3 fe^d|efgG3|efg fga|fB^d|GAB c3|FGAB3|EFG A2G|F2ED3|G3E2A|FDdd2e/f/|gfe dcB|ADFG3:|]

